assets/icons/qvision/screen_lock_portrait.svg

<svg xmlns="http://www.w3.org/2000/svg" height="24" viewBox="0 0 24 24" width="24"><path d="M0 0h24v24H0z" fill="none"/><path d="M10 16h4c.55 0 1-.45 1-1v-3c0-.55-.45-1-1-1v-1c0-1.11-.9-2-2-2-1.11 0-2 .9-2 2v1c-.55 0-1 .45-1 1v3c0 .55.45 1 1 1zm.8-6c0-.66.54-1.2 1.2-1.2.66 0 1.2.54 1.2 1.2v1h-2.4v-1zM17 1H7c-1.1 0-2 .9-2 2v18c0 1.1.9 2 2 2h10c1.1 0 2-.9 2-2V3c0-1.1-.9-2-2-2zm0 18H7V5h10v14z"/></svg>

<svg width="24" height="24" viewBox="0 0 24 24" fill="none" xmlns="http://www.w3.org/2000/svg">
<g clip-path="url(#clip0_147_2432)">
<path d="M10 16H14C14.55 16 15 15.55 15 15V12C15 11.45 14.55 11 14 11V10C14 8.89 13.1 8 12 8C10.89 8 10 8.9 10 10V11C9.45 11 9 11.45 9 12V15C9 15.55 9.45 16 10 16ZM10.8 10C10.8 9.34 11.34 8.8 12 8.8C12.66 8.8 13.2 9.34 13.2 10V11H10.8V10ZM17 1H7C5.9 1 5 1.9 5 3V21C5 22.1 5.9 23 7 23H17C18.1 23 19 22.1 19 21V3C19 1.9 18.1 1 17 1ZM17 19H7V5H17V19Z" fill="#323232"/>
</g>
<defs>
<clipPath id="clip0_147_2432">
<rect width="24" height="24" fill="white"/>
</clipPath>
</defs>
</svg>
